public/livestock/bacon.svg

<svg fill="none" height="178" viewBox="0 0 178 178" width="178" xmlns="http://www.w3.org/2000/svg" xmlns:xlink="http://www.w3.org/1999/xlink"><clipPath id="a"><path d="m42 26h94.8056v126.411h-94.8056z"/></clipPath><circle cx="89" cy="89" fill="#016099" r="89"/><g clip-path="url(#a)"><path d="m108.707 99.4452c23.162-7.1251 4.937-45.8607 28.093-52.9655l-15.492-8.2143c-23.1617 7.1252-4.936 45.8607-28.0933 52.9655-23.1569 7.1048-4.9368 45.8611-28.0936 52.9651l15.4922 8.22c23.1617-7.11 4.9367-45.861 28.0937-52.9708z" fill="#fffac2"/><path d="m85.5908 87.185c23.1622-7.1252 4.9368-45.8608 28.0932-52.9656l-15.4918-8.2194c-23.1619 7.1252-4.9367 45.8607-28.0935 52.9655-23.1569 7.1049-4.9368 45.8605-28.0987 52.9655l15.4922 8.219c23.1619-7.104 4.9367-45.8602 28.0986-52.965z" fill="#fffac2"/><path d="m89.1635 89.0783c23.1615-7.1252 4.9368-45.8608 28.0935-52.9656l-15.492-8.2194c-23.162 7.1252-4.9368 45.8607-28.0937 52.9656-23.1568 7.1048-4.9367 45.8611-28.1088 52.9651l15.5024 8.215c23.1772-7.125 4.9367-45.8559 28.0986-52.9607z" fill="#fc6719"/><path d="m100.529 95.0988c23.162-7.1252 4.936-45.8608 28.093-52.9656l-15.507-8.2194c-23.1621 7.1252-4.937 45.8607-28.0937 52.9656-23.1568 7.1048-4.9367 45.8606-28.0936 52.9656l15.4922 8.219c23.1569-7.105 4.9317-45.86 28.1091-52.9652z" fill="#fdb98d"/></g></svg>

<svg width="178" height="178" viewBox="0 0 178 178" fill="none" xmlns="http://www.w3.org/2000/svg">
<circle cx="89" cy="89" r="89" fill="#016099"/>
<g clip-path="url(#clip0_2833_6874)">
<path d="M108.707 99.4452C131.869 92.3201 113.644 53.5845 136.8 46.4797L121.308 38.2654C98.1463 45.3906 116.372 84.1261 93.2147 91.2309C70.0578 98.3357 88.2779 137.092 65.1211 144.196L80.6133 152.416C103.775 145.306 85.55 106.555 108.707 99.4452Z" fill="#FFFAC2"/>
<path d="M85.5908 87.185C108.753 80.0598 90.5276 41.3242 113.684 34.2194L98.1922 26C75.0303 33.1252 93.2555 71.8607 70.0987 78.9655C46.9418 86.0704 65.1619 124.826 42 131.931L57.4922 140.15C80.6541 133.046 62.4289 94.2898 85.5908 87.185Z" fill="#FFFAC2"/>
<path d="M89.1635 89.0783C112.325 81.9531 94.1003 43.2175 117.257 36.1127L101.765 27.8933C78.603 35.0185 96.8282 73.754 73.6713 80.8589C50.5145 87.9637 68.7346 126.72 45.5625 133.824L61.0649 142.039C84.2421 134.914 66.0016 96.1831 89.1635 89.0783Z" fill="#FC6719"/>
<path d="M100.529 95.0988C123.691 87.9736 105.465 49.238 128.622 42.1332L113.115 33.9138C89.9529 41.039 108.178 79.7745 85.0213 86.8794C61.8645 93.9842 80.0846 132.74 56.9277 139.845L72.4199 148.064C95.5768 140.959 77.3516 102.204 100.529 95.0988Z" fill="#FDB98D"/>
</g>
<defs>
<clipPath id="clip0_2833_6874">
<rect width="94.8056" height="126.411" fill="white" transform="translate(42 26)"/>
</clipPath>
</defs>
</svg>
